build/svg/cmd/sc_distributerows.svg

<?xml version="1.0" encoding="UTF-8" standalone="no"?>
<svg
   xmlns:dc="http://purl.org/dc/elements/1.1/"
   xmlns:cc="http://creativecommons.org/ns#"
   xmlns:rdf="http://www.w3.org/1999/02/22-rdf-syntax-ns#"
   xmlns:svg="http://www.w3.org/2000/svg"
   xmlns="http://www.w3.org/2000/svg"
   xmlns:sodipodi="http://sodipodi.sourceforge.net/DTD/sodipodi-0.dtd"
   xmlns:inkscape="http://www.inkscape.org/namespaces/inkscape"
   viewBox="0 0 16 16"
   version="1.1"
   id="svg4"
   sodipodi:docname="sc_distributerows.svg"
   inkscape:export-filename="/home/jupiter007/Libreoffice yaru theme fullcolor/build/cmd/sc_distributerows.png"
   inkscape:export-xdpi="96"
   inkscape:export-ydpi="96"
   inkscape:version="0.92.5 (2060ec1f9f, 2020-04-08)"><metadata
   id="metadata10">
  <rdf:RDF>
    <cc:Work
       rdf:about="">
      <dc:format>image/svg+xml</dc:format>
      <dc:type
         rdf:resource="http://purl.org/dc/dcmitype/StillImage" />
    </cc:Work>
  </rdf:RDF>
</metadata>
<defs
   id="defs8" />
<sodipodi:namedview
   pagecolor="#ffffff"
   bordercolor="#666666"
   borderopacity="1"
   objecttolerance="10"
   gridtolerance="10"
   guidetolerance="10"
   inkscape:pageopacity="0"
   inkscape:pageshadow="2"
   inkscape:window-width="1920"
   inkscape:window-height="1011"
   id="namedview6"
   showgrid="true"
   inkscape:zoom="29.5"
   inkscape:cx="7.8701995"
   inkscape:cy="3.0099347"
   inkscape:window-x="0"
   inkscape:window-y="32"
   inkscape:window-maximized="1"
   inkscape:current-layer="svg4">
  <inkscape:grid
     type="xygrid"
     id="grid817" />
</sodipodi:namedview>
/&gt;<path
   inkscape:connector-curvature="0"
   id="path856"
   d="M 8,15.000001 5,12 h 2 v -2 h 2 v 2 h 2 z"
   style="opacity:0.6;fill:#000000;fill-opacity:1;stroke:#000000;stroke-width:2;stroke-linecap:butt;stroke-linejoin:round;stroke-miterlimit:4;stroke-dasharray:none;stroke-opacity:1"
   sodipodi:nodetypes="cccccccc" />
<path
   inkscape:connector-curvature="0"
   style="fill:#aee3f8;fill-opacity:1;stroke:none;stroke-width:1px;stroke-linecap:butt;stroke-linejoin:miter;stroke-opacity:1"
   d="M 8,15.000001 5,12 h 2 v -2 h 2 v 2 h 2 z"
   id="path834-1"
   sodipodi:nodetypes="cccccccc" />
<rect
   style="opacity:1;fill:#ffffff;fill-opacity:1;stroke:none;stroke-width:2;stroke-linejoin:round;stroke-miterlimit:4;stroke-dasharray:none"
   id="rect819"
   width="10"
   height="2"
   x="3.0000002"
   y="7" />
<path
   inkscape:connector-curvature="0"
   d="m 2,6.0000003 v 1 V 10 H 7 8.9999998 14 v -2.9999997 -1 H 8.9999998 7 Z m 1,1 H 6 V 9 H 3 Z m 4,0 H 8.9999998 V 9 H 7 Z m 2.9999998,0 H 13 V 9 H 9.9999998 Z"
   id="path2-3"
   style="fill:#6d6d6d;fill-opacity:1" />
<rect
   y="2"
   x="3.0000002"
   height="2"
   width="10"
   id="rect827"
   style="opacity:1;fill:#ffffff;fill-opacity:1;stroke:none;stroke-width:2;stroke-linejoin:round;stroke-miterlimit:4;stroke-dasharray:none" />
<path
   style="fill:#6d6d6d;fill-opacity:1"
   id="path829"
   d="m 2,1.0000003 v 1 V 5 H 7 8.9999998 14 v -2.9999997 -1 H 8.9999998 7 Z m 1,1 H 6 V 4 H 3 Z m 4,0 H 8.9999998 V 4 H 7 Z m 2.9999998,0 H 13 V 4 H 9.9999998 Z"
   inkscape:connector-curvature="0" />
</svg>

<svg xmlns="http://www.w3.org/2000/svg" viewBox="0 0 16 16">/&gt;<path d="M8 15l-3-3h2v-2h2v2h2z" opacity=".6" stroke="#000" stroke-width="2" stroke-linejoin="round"/><path d="M8 15l-3-3h2v-2h2v2h2z" fill="#aee3f8"/><path fill="#fff" d="M3 7h10v2H3z"/><path d="M2 6v4h12V6H7zm1 1h3v2H3zm4 0h2v2H7zm3 0h3v2h-3z" fill="#6d6d6d"/><path fill="#fff" d="M3 2h10v2H3z"/><path d="M2 1v4h12V1H7zm1 1h3v2H3zm4 0h2v2H7zm3 0h3v2h-3z" fill="#6d6d6d"/></svg>
